communes/216.svg

<?xml version="1.0" encoding="UTF-8" standalone="no"?>
<svg
   xmlns:dc="http://purl.org/dc/elements/1.1/"
   xmlns:cc="http://creativecommons.org/ns#"
   xmlns:rdf="http://www.w3.org/1999/02/22-rdf-syntax-ns#"
   xmlns:svg="http://www.w3.org/2000/svg"
   xmlns="http://www.w3.org/2000/svg"
   xmlns:sodipodi="http://sodipodi.sourceforge.net/DTD/sodipodi-0.dtd"
   xmlns:inkscape="http://www.inkscape.org/namespaces/inkscape"
   version="1.0"
   width="219.12462"
   height="256.67032"
   id="svg2780"
   sodipodi:docname="216.svg">
  <metadata
     id="metadata12">
    <rdf:RDF>
      <cc:Work
         rdf:about="">
        <dc:format>image/svg+xml</dc:format>
        <dc:type
           rdf:resource="http://purl.org/dc/dcmitype/StillImage" />
      </cc:Work>
    </rdf:RDF>
  </metadata>
  <sodipodi:namedview
     pagecolor="#ffffff"
     bordercolor="#666666"
     borderopacity="1"
     objecttolerance="10"
     gridtolerance="10"
     guidetolerance="10"
     inkscape:pageopacity="0"
     inkscape:pageshadow="2"
     inkscape:window-width="640"
     inkscape:window-height="480"
     id="namedview10" />
  <defs
     id="defs2782" />
  <g
     transform="translate(-27.875495,-808.45809)"
     id="layer1">
    <path
       d="M 28.875495,809.45809 L 32.823211,975.29001 C 35.643001,1093.7412 239.2326,1093.7412 242.0524,975.29001 L 246.00012,809.45809 L 28.875495,809.45809 z "
       style="fill:#e04a29;fill-opacity:1;fill-rule:evenodd;stroke:#000000;stroke-width:2;stroke-linecap:butt;stroke-miterlimit:4;stroke-dashoffset:0;stroke-opacity:1"
       id="path3282" />
    <path
       d="M 81.934082,30.95023 L 101.49254,30.95023 L 101.49254,51.134435 L 111.00747,51.134435 L 111.00747,30.95023 L 130.74213,30.95023 L 130.74213,62.13804 L 118.15815,62.13804 L 118.15815,71.829167 L 130.74213,71.829167 L 130.74213,102.31217 L 111.00747,102.31217 L 111.00747,82.003371 L 101.49254,82.003371 L 101.49254,102.13597 L 81.934082,102.31217 L 81.934082,71.829167 L 101.8691,71.829167 L 101.8691,62.13804 L 81.934082,62.13804 L 81.934082,30.95023 z "
       transform="translate(0,804.33069)"
       style="color:#000000;fill:#ffffff;fill-opacity:1;fill-rule:evenodd;stroke:#000000;stroke-width:1.00000012px;stroke-linecap:butt;stroke-linejoin:miter;marker:none;marker-start:none;marker-mid:none;marker-end:none;stroke-miterlimit:4;stroke-dashoffset:0;stroke-opacity:1;visibility:visible;display:inline;overflow:visible;enable-background:accumulate"
       id="rect3755" />
    <path
       d="M 137.17784,1042.1861 C 141.51651,1039.5697 145.54529,1037.6126 153.37854,1034.8768 C 161.25135,1032.1272 186.81781,1019.9695 186.81781,994.94581 C 186.81781,969.91997 165.59389,955.42818 137.17784,955.42818 C 108.7618,955.42818 87.537878,969.91997 87.537878,994.94581 C 87.537878,1019.9695 113.10434,1032.1272 120.97715,1034.8768 C 128.81039,1037.6126 132.83917,1039.5697 137.17784,1042.1861 z M 137.80083,1024.4937 C 140.80951,1024.4937 175.60438,1018.5154 175.60438,994.33817 C 175.60438,970.28554 152.96036,971.14048 151.34383,971.14048 C 149.60305,971.14048 142.21543,971.45605 137.80083,974.36644 C 133.38623,971.45605 125.99861,971.14048 124.25783,971.14048 C 122.6413,971.14048 99.997276,970.28554 99.997276,994.33817 C 99.997276,1018.5154 134.79215,1024.4937 137.80083,1024.4937 z "
       style="color:#000000;fill:#ffffff;fill-opacity:1;fill-rule:evenodd;stroke:#000000;stroke-width:1.00310087pt;stroke-linecap:butt;stroke-linejoin:miter;marker:none;marker-start:none;marker-mid:none;marker-end:none;stroke-miterlimit:4;stroke-dashoffset:0;stroke-opacity:1;visibility:visible;display:inline;overflow:visible;enable-background:accumulate"
       id="path2764" />
    <rect
       width="25.043367"
       height="9.219945"
       rx="4.6099725"
       ry="4.6099725"
       x="124.65616"
       y="946.95581"
       style="opacity:1;color:#000000;fill:#ffffff;fill-opacity:1;fill-rule:evenodd;stroke:#000000;stroke-width:1.00000012px;stroke-linecap:butt;stroke-linejoin:miter;marker:none;marker-start:none;marker-mid:none;marker-end:none;stroke-miterlimit:4;stroke-dasharray:none;stroke-dashoffset:0;stroke-opacity:1;visibility:visible;display:inline;overflow:visible;enable-background:accumulate"
       id="rect3751" />
    <rect
       width="14.951263"
       height="124.82766"
       rx="0"
       ry="0"
       x="129.70221"
       y="822.11273"
       style="opacity:1;color:#000000;fill:#ffffff;fill-opacity:1;fill-rule:evenodd;stroke:#000000;stroke-width:1.00000012px;stroke-linecap:butt;stroke-linejoin:miter;marker:none;marker-start:none;marker-mid:none;marker-end:none;stroke-miterlimit:4;stroke-dasharray:none;stroke-dashoffset:0;stroke-opacity:1;visibility:visible;display:inline;overflow:visible;enable-background:accumulate"
       id="rect3753" />
  </g>
</svg>

<?xml version="1.0" encoding="UTF-8"?>
<svg version="1.0" viewBox="0 0 219.12 256.67" xmlns="http://www.w3.org/2000/svg" xmlns:cc="http://creativecommons.org/ns#" xmlns:dc="http://purl.org/dc/elements/1.1/" xmlns:rdf="http://www.w3.org/1999/02/22-rdf-syntax-ns#">
<metadata>
<rdf:RDF>
<cc:Work rdf:about="">
<dc:format>image/svg+xml</dc:format>
<dc:type rdf:resource="http://purl.org/dc/dcmitype/StillImage"/>
</cc:Work>
</rdf:RDF>
</metadata>
<g transform="translate(-27.875 -808.46)" fill-rule="evenodd" stroke="#000">
<path d="m28.875 809.46 3.9477 165.83c2.8198 118.45 206.41 118.45 209.23 0l3.9477-165.83h-217.12z" fill="#e04a29" stroke-width="2"/>
<path transform="translate(0 804.33)" d="m81.934 30.95h19.558v20.184h9.5149v-20.184h19.735v31.188h-12.584v9.6911h12.584v30.483h-19.735v-20.309h-9.5149v20.133l-19.558 0.1762v-30.483h19.935v-9.6911h-19.935v-31.188z" color="#000000" fill="#fff" stroke-width="1px"/>
<path d="m137.18 1042.2c4.3387-2.6164 8.3674-4.5735 16.201-7.3093 7.8728-2.7496 33.439-14.907 33.439-39.931 0-25.026-21.224-39.518-49.64-39.518-28.416 0-49.64 14.492-49.64 39.518 0 25.024 25.566 37.181 33.439 39.931 7.8332 2.7358 11.862 4.6929 16.201 7.3093zm0.62299-17.692c3.0087 0 37.804-5.9783 37.804-30.156 0-24.053-22.644-23.198-24.261-23.198-1.7408 0-9.1284 0.31557-13.543 3.226-4.4146-2.9104-11.802-3.226-13.543-3.226-1.6165 0-24.261-0.85494-24.261 23.198 0 24.177 34.795 30.156 37.804 30.156z" color="#000000" fill="#fff" stroke-width="1.0031pt"/>
<rect x="124.66" y="946.96" width="25.043" height="9.2199" rx="4.61" ry="4.61" color="#000000" fill="#fff" stroke-width="1px"/>
<rect x="129.7" y="822.11" width="14.951" height="124.83" rx="0" ry="0" color="#000000" fill="#fff" stroke-width="1px"/>
</g>
</svg>
